Sources/FrostedUI/Resources/Icons.xcassets/dollarCircleFilled24.imageset/dollar-circle-filled-24.svg

<svg width="24" height="24" viewBox="0 0 24 24" fill="none" xmlns="http://www.w3.org/2000/svg" data-fui-icon="true">
  <path
    d="M12 0C18.6274 0 24 5.37258 24 12C24 18.6274 18.6274 24 12 24C5.37258 24 0 18.6274 0 12C0 5.37258 5.37258 0 12 0ZM12.0107 4.34961C11.5967 4.34961 11.2609 4.68556 11.2607 5.09961V5.66113C8.78584 5.94266 7.41551 7.60603 7.41504 9.18066C7.4151 9.82619 7.56419 10.3875 7.86035 10.8594C8.1545 11.3278 8.56324 11.6606 9.00586 11.9033C9.67276 12.269 10.4921 12.4639 11.2607 12.6133V16.8105C10.4895 16.6974 9.97654 16.4168 9.63184 16.1211C9.17255 15.7269 8.95294 15.2573 8.8584 14.9688C8.72941 14.5754 8.30559 14.3606 7.91211 14.4893C7.51878 14.6183 7.30396 15.0421 7.43262 15.4355C7.58465 15.8997 7.92808 16.6365 8.6543 17.2598C9.26716 17.7857 10.1155 18.1962 11.2607 18.3223V18.8838C11.2608 19.298 11.5965 19.6338 12.0107 19.6338C12.4247 19.6335 12.7607 19.2978 12.7607 18.8838V18.3213C15.2363 18.0398 16.6042 16.3771 16.6045 14.8027C16.6044 14.1573 16.4553 13.5968 16.1592 13.125C15.865 12.6565 15.4564 12.3238 15.0137 12.0811C14.3472 11.7156 13.529 11.5188 12.7607 11.3691V7.16895C14.5277 7.41296 15.0422 8.50029 15.1211 8.86914C15.2077 9.2738 15.606 9.53228 16.0107 9.44629C16.4156 9.35977 16.6741 8.96057 16.5879 8.55566C16.3748 7.55874 15.3176 5.9276 12.7607 5.6582V5.09961C12.7605 4.68577 12.4246 4.34994 12.0107 4.34961ZM12.7607 12.8994C13.3684 13.0276 13.8861 13.1734 14.293 13.3965C14.5707 13.5489 14.7624 13.7219 14.8887 13.9229C15.0127 14.1205 15.1044 14.395 15.1045 14.8027C15.1042 15.4311 14.5004 16.5562 12.7607 16.8105V12.8994ZM11.2607 11.082C10.653 10.9541 10.1346 10.8111 9.72754 10.5879C9.44961 10.4355 9.25714 10.2626 9.13086 10.0615C9.00682 9.8638 8.9151 9.58854 8.91504 9.18066C8.91556 8.55278 9.52083 7.42623 11.2607 7.17188V11.082Z"
    fill="currentColor"
  />
</svg>

<svg xmlns="http://www.w3.org/2000/svg" width="24" height="24" fill="none" data-fui-icon="true" viewBox="0 0 24 24"><path fill="currentColor" d="M12 0c6.627 0 12 5.373 12 12s-5.373 12-12 12S0 18.627 0 12 5.373 0 12 0m.01 4.35a.75.75 0 0 0-.75.75v.561c-2.474.282-3.844 1.945-3.845 3.52 0 .645.15 1.207.445 1.678.295.469.703.802 1.146 1.044.667.366 1.486.56 2.255.71v4.198c-.771-.114-1.284-.394-1.63-.69a2.6 2.6 0 0 1-.773-1.152.75.75 0 0 0-1.425.466 4.1 4.1 0 0 0 1.221 1.825c.613.526 1.462.936 2.607 1.062v.562a.75.75 0 0 0 1.5 0v-.563c2.475-.281 3.843-1.944 3.844-3.518q-.001-.97-.446-1.678c-.294-.469-.703-.801-1.145-1.044-.667-.365-1.485-.562-2.253-.712v-4.2c1.767.244 2.281 1.331 2.36 1.7a.75.75 0 0 0 1.467-.313c-.213-.997-1.27-2.628-3.827-2.898V5.1a.75.75 0 0 0-.75-.75m.75 8.55c.608.128 1.126.273 1.533.496.278.153.47.326.596.527.124.197.215.472.216.88 0 .628-.605 1.753-2.344 2.008zm-1.5-1.818c-.607-.128-1.125-.27-1.532-.494-.278-.152-.47-.325-.597-.526-.124-.198-.216-.473-.216-.881 0-.628.606-1.755 2.346-2.01z"/></svg>
